images/assets/images/logo.svg

<?xml version="1.0" encoding="UTF-8" standalone="no"?>
<svg width="107px" height="35px" viewBox="0 0 107 35" version="1.1" xmlns="http://www.w3.org/2000/svg" xmlns:xlink="http://www.w3.org/1999/xlink" xmlns:sketch="http://www.bohemiancoding.com/sketch/ns">
    <!-- Generator: Sketch 3.3.2 (12043) - http://www.bohemiancoding.com/sketch -->
    <title>logo</title>
    <desc>Created with Sketch.</desc>
    <defs></defs>
    <g id="Components" stroke="none" stroke-width="1" fill="none" fill-rule="evenodd" sketch:type="MSPage">
        <g id="Components-description-v2" sketch:type="MSArtboardGroup" transform="translate(-40.000000, -26.000000)" fill="#FFFFFF">
            <g id="navbar" sketch:type="MSLayerGroup">
                <g id="logo" transform="translate(40.000000, 26.000000)" sketch:type="MSShapeGroup">
                    <path d="M16.7922618,26.5899153 C16.0642813,28.5107627 13.9329112,29.860339 11.5936315,29.860339 C7.90234566,29.860339 5.51108862,26.7972458 5.51108862,22.072839 C5.51108862,17.1405085 7.90234566,14.0774153 11.7495637,14.0774153 C14.0885463,14.0774153 16.3244652,15.5311017 16.8965136,17.4519492 C17.2083779,18.3865678 17.3123327,19.6842373 17.3123327,22.3320763 C17.3123327,24.4092373 17.1561035,25.7066102 16.7922618,26.5899153 L16.7922618,26.5899153 Z M17.3643101,0.0593220339 L17.3643101,11.4814831 C15.3368948,9.76826271 13.4651147,9.04127119 10.9176284,9.04127119 C4.47124376,9.04127119 0,14.2847458 0,21.8652119 C0,29.4972881 4.57519855,34.8964831 11.0738576,34.8964831 C13.5173891,34.8964831 15.6484621,34.0653814 17.3643101,32.4043644 L17.3643101,34.3252119 L22.6149177,34.3252119 L22.6149177,0.0593220339 L17.3643101,0.0593220339 L17.3643101,0.0593220339 Z" id="Fill-1"></path>
                    <path d="M40.5031599,26.4861017 C40.5031599,27.9397881 40.2949534,28.5107627 39.5675669,29.1333475 C38.6316768,29.9641525 37.0200807,30.5357203 35.6683714,30.5357203 C33.1211822,30.5357203 31.0411955,28.8735169 31.0411955,26.8488559 C31.0411955,25.1875424 32.1333148,24.2013136 34.5762522,23.6300424 C36.1884424,23.2663983 37.5398546,23.1112712 40.5031599,22.7992373 L40.5031599,26.4861017 L40.5031599,26.4861017 Z M45.806042,26.0189407 L45.806042,16.9325847 C45.806042,13.9733051 45.4941776,12.8310593 44.1947428,11.4814831 C42.6871014,9.87177966 39.9311116,8.9890678 36.5000097,8.9890678 C33.0166334,8.9890678 29.5338511,9.81957627 26.1544296,11.5333898 L28.3380741,15.7384322 C31.8214504,14.2334322 33.5367043,13.8175847 35.9279614,13.8175847 C39.1517477,13.8175847 40.4511825,14.9598305 40.5031599,17.7633898 L40.5031599,18.5422881 C36.2923972,18.957839 34.8881165,19.1135593 33.225137,19.4247034 C27.9216609,20.4631356 25.4267461,22.7992373 25.4267461,26.7450424 C25.4267461,31.417839 29.4815767,34.9483898 34.8367332,34.9483898 C37.6960838,34.9483898 39.9311116,33.9099576 41.5430048,31.8852966 C42.0627787,33.5979237 43.4667623,34.6363559 45.806042,34.9483898 L48.457483,30.8987712 C46.066226,29.9119492 45.806042,29.3928814 45.806042,26.0189407 L45.806042,26.0189407 Z" id="Fill-2"></path>
                    <path d="M57.5499624,25.8104237 C57.5499624,28.8735169 58.1742852,29.6002119 60.7737488,29.6002119 C61.6576615,29.6002119 62.6449349,29.4972881 63.7373512,29.2893644 L64.4124632,33.9099576 C62.6975063,34.3771186 60.7737488,34.6363559 59.1095812,34.6363559 C54.2231123,34.6363559 52.2993548,32.6116949 52.2993548,27.5761441 L52.2993548,14.0774153 L47.7761336,14.0774153 L47.7761336,9.56033898 L52.2993548,9.56033898 L52.2993548,1.92826271 L57.5499624,0.0593220339 L57.5499624,9.56033898 L64.0489185,9.56033898 L64.0489185,14.0774153 L57.5499624,14.0774153 L57.5499624,25.8104237" id="Fill-3"></path>
                    <path d="M75.3678124,25.8104237 C75.3678124,28.8735169 75.9921351,29.6002119 78.5915988,29.6002119 C79.4752144,29.6002119 80.4627849,29.4972881 81.5552011,29.2893644 L82.2300162,33.9099576 C80.5153563,34.3771186 78.5915988,34.6363559 76.9274312,34.6363559 C72.0409623,34.6363559 70.1172048,32.6116949 70.1172048,27.5761441 L70.1172048,14.0774153 L65.5942806,14.0774153 L65.5942806,9.56033898 L70.1172048,9.56033898 L70.1172048,1.92826271 L75.3678124,0.0593220339 L75.3678124,9.56033898 L81.8667685,9.56033898 L81.8667685,14.0774153 L75.3678124,14.0774153 L75.3678124,25.8104237" id="Fill-4"></path>
                    <path d="M94.5201448,29.860339 C90.6732237,29.860339 88.1257375,26.6931356 88.1257375,21.9687288 C88.1257375,17.2440254 90.7252011,13.9733051 94.5724192,13.9733051 C98.3159795,13.9733051 100.811488,17.1405085 100.811488,21.9687288 C100.811488,26.6931356 98.2637051,29.860339 94.5201448,29.860339 L94.5201448,29.860339 Z M94.3125322,8.93745763 C87.398351,8.93745763 82.7711751,14.1812288 82.7711751,22.072839 C82.7711751,29.704322 87.657644,35 94.7283514,35 C101.643424,35 106.477618,29.6524153 106.477618,22.072839 C106.477618,14.2847458 101.538578,8.93745763 94.3125322,8.93745763 L94.3125322,8.93745763 Z" id="Fill-5"></path>
                </g>
            </g>
        </g>
    </g>
</svg>

<svg width="107" height="35" viewBox="0 0 107 35" xmlns="http://www.w3.org/2000/svg"><title>logo</title><desc>Created with Sketch.</desc><g fill="#fff"><path d="M16.792 26.59c-.728 1.92-2.86 3.27-5.198 3.27-3.692 0-6.083-3.063-6.083-7.787 0-4.932 2.392-7.996 6.24-7.996 2.34 0 4.574 1.454 5.147 3.375.31.935.415 2.232.415 4.88 0 2.077-.156 3.375-.52 4.258zM17.364.06v11.42c-2.027-1.712-3.9-2.44-6.446-2.44C4.47 9.04 0 14.286 0 21.866c0 7.632 4.575 13.03 11.074 13.03 2.443 0 4.574-.83 6.29-2.49v1.92h5.25V.06h-5.25z"/><path d="M40.503 26.486c0 1.454-.208 2.025-.935 2.647-.936.83-2.548 1.403-3.9 1.403-2.547 0-4.627-1.662-4.627-3.687 0-1.662 1.093-2.65 3.536-3.22 1.612-.364 2.964-.52 5.927-.83v3.686zm5.303-.467v-9.087c0-2.96-.312-4.102-1.61-5.452-1.51-1.608-4.265-2.49-7.696-2.49-3.483 0-6.966.83-10.346 2.543l2.184 4.205c3.483-1.505 5.2-1.92 7.59-1.92 3.224 0 4.523 1.142 4.575 3.945v.78c-4.21.415-5.615.57-7.278.882-5.303 1.038-7.798 3.374-7.798 7.32 0 4.673 4.055 8.203 9.41 8.203 2.86 0 5.094-1.038 6.706-3.063.52 1.713 1.924 2.75 4.263 3.063l2.65-4.05c-2.39-.986-2.65-1.505-2.65-4.88z"/><path d="M57.55 25.81c0 3.064.624 3.79 3.224 3.79.884 0 1.87-.103 2.963-.31l.675 4.62c-1.714.467-3.638.726-5.302.726-4.887 0-6.81-2.024-6.81-7.06v-13.5h-4.524V9.56H52.3V1.928l5.25-1.87V9.56h6.5v4.517h-6.5V25.81"/><path d="M75.368 25.81c0 3.064.624 3.79 3.224 3.79.883 0 1.87-.103 2.963-.31l.675 4.62c-1.715.467-3.638.726-5.303.726-4.886 0-6.81-2.024-6.81-7.06v-13.5h-4.523V9.56h4.523V1.928l5.25-1.87V9.56h6.5v4.517h-6.5V25.81"/><path d="M94.52 29.86c-3.847 0-6.394-3.167-6.394-7.89 0-4.726 2.6-7.997 6.446-7.997 3.744 0 6.24 3.168 6.24 7.996 0 4.723-2.548 7.89-6.292 7.89zm-.207-20.923c-6.915 0-11.542 5.244-11.542 13.136C82.77 29.703 87.66 35 94.73 35c6.915 0 11.75-5.348 11.75-12.927 0-7.788-4.94-13.136-12.165-13.136z"/></g></svg>
